X: 849
T: My Former Wife
N:"Collected by Early"
B:O'Neill's 849
Z:Transcribed by Dan G. Petersen, dangp@post6.tele.dk
M:6/8
L:1/8
K:Am
E|EAA EBc|BAG c2A|BGE EFE|GED DED|
EAA ABc|BAB GBd|ede gdB|(~BA)A A2:|
d|efg abc'|bag a2g|ede g2a|(g<b)a ged|
efg abc'|bag a2g|ede gdB|(~BA)A A2:|


